icons/AdobeIndesignColor.svg

<svg width="16" height="16" viewBox="0 0 16 16" fill="none" xmlns="http://www.w3.org/2000/svg">
<g clip-path="url(#clip0_2180_4613)">
<path d="M13.1667 0.200012H2.83333C1.26853 0.200012 0 1.46854 0 3.03335V12.9667C0 14.5315 1.26853 15.8 2.83333 15.8H13.1667C14.7315 15.8 16 14.5315 16 12.9667V3.03335C16 1.46854 14.7315 0.200012 13.1667 0.200012Z" fill="#49021F"/>
<path d="M5.81053 4.28109V11.1182C5.81053 11.1898 5.77834 11.2256 5.71395 11.2256H4.41519C4.35786 11.2256 4.32925 11.1898 4.32935 11.1182V4.28109C4.32935 4.22389 4.36154 4.19527 4.42593 4.19521H5.72466C5.73632 4.19356 5.74821 4.19463 5.75939 4.19836C5.77056 4.20209 5.78072 4.20837 5.78904 4.2167C5.79737 4.22503 5.80365 4.23519 5.80738 4.24636C5.81111 4.25753 5.81219 4.26942 5.81053 4.28109Z" fill="#FF3366"/>
<path d="M9.65306 11.3329C9.15902 11.3404 8.66953 11.2377 8.22015 11.0324C7.80152 10.8386 7.45158 10.5223 7.2166 10.1254C6.97324 9.72121 6.85159 9.21495 6.85166 8.60662C6.84762 8.11401 6.97349 7.62903 7.2166 7.20055C7.46701 6.76412 7.83526 6.40702 8.2792 6.17015C8.74424 5.91255 9.30594 5.78375 9.96432 5.78376C10 5.78376 10.0465 5.78555 10.1038 5.78913C10.161 5.79281 10.229 5.79817 10.3078 5.80522V3.69076C10.3078 3.64077 10.3293 3.61562 10.3722 3.61562H11.7246C11.7333 3.61437 11.7422 3.61518 11.7506 3.61797C11.759 3.62076 11.7666 3.62547 11.7729 3.63172C11.7791 3.63796 11.7838 3.64558 11.7866 3.65396C11.7894 3.66234 11.7902 3.67126 11.789 3.68001V10.0234C11.789 10.1452 11.7944 10.2776 11.8051 10.4206C11.8158 10.5638 11.8248 10.6926 11.8319 10.8069C11.8332 10.8292 11.8278 10.8514 11.8163 10.8706C11.8048 10.8897 11.7878 10.905 11.7675 10.9143C11.4186 11.0598 11.0552 11.1677 10.6835 11.2363C10.3435 11.299 9.99871 11.3313 9.65306 11.3329ZM10.3078 10.002V7.07176C10.2498 7.05605 10.1905 7.04527 10.1307 7.03955C10.0576 7.0322 9.98413 7.02862 9.91064 7.02882C9.65018 7.02623 9.39278 7.08507 9.15931 7.20055C8.93192 7.31359 8.73776 7.48371 8.59583 7.69429C8.44909 7.90895 8.37574 8.1916 8.37578 8.54222C8.37055 8.7762 8.40876 9.00911 8.48848 9.22915C8.55334 9.40645 8.65588 9.56757 8.78903 9.70142C8.91648 9.82456 9.0708 9.91643 9.23981 9.96976C9.41833 10.0276 9.60493 10.0565 9.79258 10.0556C9.89271 10.0556 9.98573 10.052 10.0716 10.0449C10.1516 10.0389 10.2308 10.0245 10.3078 10.002Z" fill="#FF3366"/>
</g>
<defs>
<clipPath id="clip0_2180_4613">
<rect width="16" height="16" fill="white"/>
</clipPath>
</defs>
</svg>

<svg width="16" height="16" fill="none" xmlns="http://www.w3.org/2000/svg"><g clip-path="url(#a)"><path d="M13.167.2H2.833A2.833 2.833 0 0 0 0 3.033v9.934A2.833 2.833 0 0 0 2.833 15.8h10.334A2.833 2.833 0 0 0 16 12.967V3.033A2.833 2.833 0 0 0 13.167.2z" fill="#49021F"/><path d="M5.81 4.281v6.837c0 .072-.032.108-.096.108H4.415c-.057 0-.086-.036-.086-.108V4.281c0-.057.033-.086.097-.086h1.299a.076.076 0 0 1 .086.086zM9.653 11.333a3.327 3.327 0 0 1-1.433-.3 2.279 2.279 0 0 1-1.003-.908c-.244-.404-.365-.91-.365-1.518A2.803 2.803 0 0 1 7.217 7.2a2.68 2.68 0 0 1 1.062-1.03c.465-.258 1.027-.387 1.685-.387.036 0 .082.002.14.005l.204.016V3.691c0-.05.021-.075.064-.075h1.353a.057.057 0 0 1 .064.064v6.343c0 .122.005.255.016.398l.027.386a.111.111 0 0 1-.065.107 5.33 5.33 0 0 1-1.083.322 5.82 5.82 0 0 1-1.03.097zm.655-1.331v-2.93a1.065 1.065 0 0 0-.177-.032 2.142 2.142 0 0 0-.22-.011 1.657 1.657 0 0 0-.752.172 1.467 1.467 0 0 0-.563.493c-.147.215-.22.498-.22.848-.005.234.033.467.112.687.065.177.168.339.301.472.127.124.282.215.45.269.18.058.366.086.554.086.1 0 .193-.004.279-.011.08-.006.159-.02.236-.043z" fill="#F36"/></g><defs><clipPath id="a"><path fill="#fff" d="M0 0h16v16H0z"/></clipPath></defs></svg>
